X:1
T:Title
%%score [ ( 1 2 ) ( 3 4 ) ]
L:1/8
Q:1/4=108
M:4/4
K:Eb
V:1 treble nm="Midi_74"
V:2 treble 
V:3 bass nm="Midi_69"
V:4 bass 
V:1
"^Elvet (C.M.)""^John Bacchus Dykes\n(1823-76)""^Bernard Barton\n(1784-1849)""^Lamp of our feet" G2 AA B2 E2 | %1
w: |
w: |
w: |
w: |
w: |
 E2 c2 B2 e2 | d2 c2 B2 =A2 | B8 || G2 AB c2 F2 | F2 (GA) B2 B2 | A2 F2 E2 D2 | E8 |] %8
w: ||||* ly * grace, Brook|by the travel- ler's|way;|
w: ||||* we * read Of|realms be- yond the|sky;|
w: ||||* ing * bark, Our|an- chor and our|stay;|
w: ||||* be * trod, Or|heaven it- self be|won?|
w: ||||* ing * turn With|sim- ple child- like|hearts.|
V:2
 E2 EE E2 (ED) | (CD) (EF) G2 G2 | F2 G2 F2 F2 | F8 || E2 EG (AG) (FE) | D2 D2 E2 E2 | %6
w: ~Lamp of our feet, where\- *|by * we * trace Our|path when wont to|stray;|Stream from the fount * of *||
w: ~Bread of our souls, where\- *|on * we * feed, True|man- na from on|high;|Our guide and chart * where\- *||
w: Pil- lar of fire through *|wat\- * ches * dark Or|rad- iant cloud by|day;|When waves would whelm * our *||
w: ~Word of the e- ver\- *|liv * ing\- * God, Will|of His glo- rious|Son,|With- out Thee how * could *||
w: ~Lord, grant that we a\- *|right * may * learn The|wis- dom it im-|parts,|And to its heaven\- * ly *||
 E2 C2 B,2 B,2 | B,8 |] %8
w: ||
w: ||
w: ||
w: ||
w: ||
V:3
 B,2 A,A, G,2 G,2 | (A,B,) (CD) E2 (G,=A,) | B,2 E2 D2 C2 | D8 || C2 EE E2 C2 | (DC) B,2 B,2 _D2 | %6
w: |||||heaven\- * * * *|
w: |||||in * * * *|
w: |||||toss\- * * * *|
w: |||||earth * * * *|
w: |||||teach\- * * * *|
 C2 A,2 G,2 F,2 | G,8 |] %8
w: ||
w: ||
w: ||
w: ||
w: ||
V:4
 E,2 C,C, B,,2 (C,B,,) | A,,2 A,2 E,2 C,2 | D,2 E,2 F,2 F,2 | B,8 || C2 CB, A,2 A,2 | %5
 A,2 (B,A,) G,2 G,2 | A,2 A,,2 B,,2 B,,2 | E,8 |] %8

